public/avatar/hat/6.svg

<svg xmlns:xlink="http://www.w3.org/1999/xlink" height="92.9" width="100.7" xmlns="http://www.w3.org/2000/svg"><use height="24.45" transform="translate(17.95 41.4)" width="40.75" xlink:href="#a"/><defs><use height="24.45" width="40.75" xlink:href="#b" id="a"/><g id="b" fill-rule="evenodd"><path d="M-2.8-12.2q.1 1.9 1.45 3.5L1.2-6.25q1.65 1.35 2.6.7Q6.2-13 13.85-12l.05.95-.4-.25-.65 1.25q-.95 1.7-2.5 2.95-1.5 1.25-3.35 2-1.75.7-3.2 2.15Q1.7-4.6-.95-5.25L-2.3-5.5q-1-.9-1.5-2.15-1.05-2.7 1-4.55" fill="#c00" transform="translate(20.4 12.2)"/><path d="M3.8-5.55q-.95.65-2.6-.7L-1.35-8.7q-1.35-1.6-1.45-3.5 4.95 1.55 6.6 6.65m0 2.6Q5.25-4.4 7-5.1q1.85-.75 3.35-2 1.55-1.25 2.5-2.95l.65-1.25.4.25q.3 6.55-6.4 7.15l-.95.05h.25q-1.45.1-3 .9" fill="#900" transform="translate(20.4 12.2)"/><path d="m-2.3-5.5 1.35.25q2.65.65 4.75 2.3 1.55-.8 3-.9h.05q2.8.1 4.65 1.35 2 1.45 4.25 2.45 2.6 1.05 3.05-1.5 2.9 4.9.45 9.95-1.55 3.1-4.7 3.85-.7-4.15-2.9-7.55Q8.6 0 3.8-2.95-.8-4.9-4.45-.2q-3.65 4.7-6.4 4.1l-.2 3q-.25 2.15-3.25 4.55-6.95-1.5-6-8.2Q-17.7 5-15.85 2.1q1.8-2.9 4.55-5.1 4.1-3.15 9-2.5" transform="translate(20.4 12.2)"/></g></defs></svg>

<?xml version="1.0" encoding="UTF-8" standalone="no"?>
<svg xmlns:xlink="http://www.w3.org/1999/xlink" height="92.9px" width="100.7px" xmlns="http://www.w3.org/2000/svg">
  <g transform="matrix(1.0, 0.0, 0.0, 1.0, 38.65, 49.75)">
    <use height="24.45" transform="matrix(1.0, 0.0, 0.0, 1.0, -20.7, -8.35)" width="40.75" xlink:href="#sprite0"/>
  </g>
  <defs>
    <g id="sprite0" transform="matrix(1.0, 0.0, 0.0, 1.0, 20.4, 12.2)">
      <use height="24.45" transform="matrix(1.0, 0.0, 0.0, 1.0, -20.4, -12.2)" width="40.75" xlink:href="#shape0"/>
    </g>
    <g id="shape0" transform="matrix(1.0, 0.0, 0.0, 1.0, 20.4, 12.2)">
      <path d="M-2.8 -12.2 Q-2.7 -10.3 -1.35 -8.7 L1.2 -6.25 Q2.85 -4.9 3.8 -5.55 6.2 -13.0 13.85 -12.0 L13.9 -11.05 13.5 -11.3 12.85 -10.05 Q11.9 -8.35 10.35 -7.1 8.85 -5.85 7.0 -5.1 5.25 -4.4 3.8 -2.95 1.7 -4.6 -0.95 -5.25 L-2.3 -5.5 Q-3.3 -6.4 -3.8 -7.65 -4.85 -10.35 -2.8 -12.2" fill="#cc0000" fill-rule="evenodd" stroke="none"/>
      <path d="M3.8 -5.55 Q2.85 -4.9 1.2 -6.25 L-1.35 -8.7 Q-2.7 -10.3 -2.8 -12.2 2.15 -10.65 3.8 -5.55 M3.8 -2.95 Q5.25 -4.4 7.0 -5.1 8.85 -5.85 10.35 -7.1 11.9 -8.35 12.85 -10.05 L13.5 -11.3 13.9 -11.05 Q14.2 -4.5 7.5 -3.9 L6.55 -3.85 6.8 -3.85 Q5.35 -3.75 3.8 -2.95" fill="#990000" fill-rule="evenodd" stroke="none"/>
      <path d="M-2.3 -5.5 L-0.95 -5.25 Q1.7 -4.6 3.8 -2.95 5.35 -3.75 6.8 -3.85 L6.85 -3.85 Q9.65 -3.75 11.5 -2.5 13.5 -1.05 15.75 -0.05 18.35 1.0 18.8 -1.55 21.7 3.35 19.25 8.4 17.7 11.5 14.55 12.25 13.85 8.1 11.65 4.7 8.6 0.0 3.8 -2.95 -0.8 -4.9 -4.45 -0.2 -8.1 4.5 -10.85 3.9 L-11.05 6.9 Q-11.3 9.05 -14.3 11.45 -21.25 9.95 -20.3 3.25 -17.7 5.0 -15.85 2.1 -14.05 -0.8 -11.3 -3.0 -7.2 -6.15 -2.3 -5.5" fill="#000000" fill-rule="evenodd" stroke="none"/>
    </g>
  </defs>
</svg>
